svgs/solid/rings-wedding.svg

<svg xmlns="http://www.w3.org/2000/svg" viewBox="0 0 512 512"><!-- Font Awesome Pro 6.0.0-alpha2 by @fontawesome - https://fontawesome.com License - https://fontawesome.com/license (Commercial License) --><path d="M351.25 160.738C365.25 182.861 375 207.359 379.875 232.982C431.5 254.98 458.875 311.726 444 365.722C429.125 419.842 376.5 454.465 321 446.965C265.375 439.466 224 392.095 224 335.974C224 293.727 247.75 257.355 282.25 238.481C285.625 249.106 288 260.23 288 271.979C288 300.477 277 327.974 257.25 348.598C260.875 371.096 273.875 390.97 293 403.219C330.5 369.972 352 322.1 352 271.979C352 190.36 296.375 121.866 221 101.992L256 31.998L224 0H128L96 31.998L131 101.992C55.625 121.866 0 190.36 0 271.979C0 369.221 78.75 447.965 176 447.965C183.625 447.965 191.375 447.34 199 446.215C245.75 504.461 324.125 526.834 394.5 501.961C465 477.213 512 410.593 512 335.974C512 243.981 441.25 168.487 351.25 160.738ZM64 271.979C64.125 210.109 114.125 160.113 176 159.988C202.875 159.988 227.25 169.862 246.5 185.736C195 216.233 160 271.604 160 335.974C160 351.848 162.25 367.721 166.5 382.97C109.25 378.096 64 330.474 64 271.979Z"/></svg>

<svg xmlns="http://www.w3.org/2000/svg" viewBox="0 0 512 512"><!-- Font Awesome Pro 5.15.1 by @fontawesome - https://fontawesome.com License - https://fontawesome.com/license (Commercial License) --><path d="M351.25 160.77A206.38 206.38 0 0 1 379.9 233 112 112 0 1 1 224 336c0-42.21 23.69-78.57 58.31-97.49 3.37 10.64 5.69 21.75 5.69 33.49a111.34 111.34 0 0 1-30.73 76.6A79.84 79.84 0 0 0 293 403.23 175.36 175.36 0 0 0 352 272c0-81.62-55.64-150.07-131-170l35-70-32-32h-96L96 32l35 70C55.64 121.93 0 190.38 0 272a176 176 0 0 0 176 176 171.77 171.77 0 0 0 22.94-1.71A175.93 175.93 0 0 0 512 336c0-92-70.7-167.49-160.75-175.23zM64 272a112.12 112.12 0 0 1 112-112c26.85 0 51.19 9.88 70.5 25.69C194.94 216.24 160 271.68 160 336a175.89 175.89 0 0 0 6.55 47C109.28 378.16 64 330.52 64 272z"/></svg>
